X: 8308
T: Corrido De Encina
R: jig
M: 6/8
K: Aminor
M:5/8
Ac|:e2z e2|efe dB|cdc Bc|A2c BA|
BcB GB|E2d cB|edc Bc|A2E Ac|
e2z e2|efe dB|cdc Bc|A2c BA|
B3 f2|edc Bc|A3 A2|1 A2E Ac:|2 A2c BA||
|:GGG BG|dGG AB|c2B cd|e3 fe|
dcB cd|edc Bc|A3 A2|1 A2c BA:|2 A2B BA||
B2G E2|B2c cB|c2B A2|A2B BA|
B2G E2|EFG FE|A3 A2|A2B BA|
B2G E2|B2c cB|c2B A2|ABc ed|
B3 B2|EFG FE|A3 A2|A2E Ac||

